X: 2
T:Barry's Favourite
% Nottingham Music Database
S:Mick Peat
M:2/2
K:D
A2|:"D"a3/2b/2a3/2g/2 f2(3def|"Em"g3/2a/2g3/2f/2 "A"e2A2|"D"f3/2g/2f3/2e/2 d2f2\
|"Em"B3/2c/2d3/2e/2 "A"c2A2|
"D"a3/2b/2a3/2g/2 f2(3def|"Em"g3/2a/2g3/2f/2 "A"e2A2|\
"D"f3/2g/2f3/2e/2 d3/2e/2f3/2A/2|"G"B3/2d/2"A"d3/2c/2 "D"d2A2:|
|:"G"B3/2A/2B3/2g/2 "D"d2A2|"Em"e3/2d/2e3/2f/2 "A"e2a2|\
"G"b3/2a/2(3gab "D"a3/2g/2(3fga|"E"f3/2e/2(3def "A"e2A2|
"G"B3/2A/2B3/2g/2 "D"d2A2|"Em"e3/2d/2e3/2f/2 "A"e2a2|\
"G"b3/2a/2g3/2f/2 "A"a3/2g/2f3/2e/2|1"D"d2f2 d2A2:|[2 d2f2d2|
<end>
<start>
